svg/267.svg

<svg width="900" height="600" viewBox="0 0 900 600" fill="none" xmlns="http://www.w3.org/2000/svg"><path fill="transparent" d="M0 0h900v600H0z"/><mask id="a" fill="#fff"><path fill-rule="evenodd" clip-rule="evenodd" d="M182.191 185.176v-40.978c0-22.631 18.347-40.978 40.978-40.978h204.89c22.632 0 40.978 18.347 40.978 40.978v102.445"/></mask><path fill-rule="evenodd" clip-rule="evenodd" d="M182.191 185.176v-40.978c0-22.631 18.347-40.978 40.978-40.978h204.89c22.632 0 40.978 18.347 40.978 40.978v102.445" fill="#fff"/><path d="M186.191 185.176v-40.978h-8v40.978h8zm0-40.978c0-20.422 16.556-36.978 36.978-36.978v-8c-24.84 0-44.978 20.138-44.978 44.978h8zm36.978-36.978h204.89v-8h-204.89v8zm204.89 0c20.423 0 36.978 16.556 36.978 36.978h8c0-24.84-20.137-44.978-44.978-44.978v8zm36.978 36.978v102.445h8V144.198h-8z" fill="#E1E4E5" mask="url(#a)"/><path d="m317.864 184.332.001.002a22.49 22.49 0 0 0 18.711 10.008h132.461c21.527 0 38.978 17.451 38.978 38.978v143.423c0 21.527-17.451 38.978-38.978 38.978H182.191c-21.527 0-38.978-17.451-38.978-38.978v-204.89c0-21.527 17.451-38.978 38.978-38.978h91.488a18.488 18.488 0 0 1 15.439 8.246l28.746 43.211z" fill="#fff" stroke="#E1E4E5" stroke-width="4"/><mask id="b" fill="#fff"><path fill-rule="evenodd" clip-rule="evenodd" d="M304.057 240.177v-40.978c0-22.631 18.346-40.978 40.978-40.978h204.89c22.631 0 40.978 18.347 40.978 40.978v102.445"/></mask><path fill-rule="evenodd" clip-rule="evenodd" d="M304.057 240.177v-40.978c0-22.631 18.346-40.978 40.978-40.978h204.89c22.631 0 40.978 18.347 40.978 40.978v102.445" fill="#fff"/><path d="M308.057 240.177v-40.978h-8v40.978h8zm0-40.978c0-20.422 16.556-36.978 36.978-36.978v-8c-24.841 0-44.978 20.138-44.978 44.978h8zm36.978-36.978h204.89v-8h-204.89v8zm204.89 0c20.422 0 36.978 16.556 36.978 36.978h8c0-24.84-20.137-44.978-44.978-44.978v8zm36.978 36.978v102.445h8V199.199h-8z" fill="#E1E4E5" mask="url(#b)"/><path d="m439.729 239.333.002.002a22.487 22.487 0 0 0 18.71 10.008h132.462c21.527 0 38.978 17.451 38.978 38.978v143.423c0 21.527-17.451 38.978-38.978 38.978H304.057c-21.527 0-38.978-17.451-38.978-38.978v-204.89c0-21.527 17.451-38.978 38.978-38.978h91.488a18.484 18.484 0 0 1 15.438 8.246l28.746 43.211z" fill="#fff" stroke="#E1E4E5" stroke-width="4"/><mask id="c" fill="#fff"><path fill-rule="evenodd" clip-rule="evenodd" d="M425.922 295.179v-40.978c0-22.632 18.347-40.978 40.978-40.978h204.891c22.631 0 40.978 18.346 40.978 40.978v102.445"/></mask><path fill-rule="evenodd" clip-rule="evenodd" d="M425.922 295.179v-40.978c0-22.632 18.347-40.978 40.978-40.978h204.891c22.631 0 40.978 18.346 40.978 40.978v102.445" fill="#fff"/><path d="M429.922 295.179v-40.978h-8v40.978h8zm0-40.978c0-20.423 16.556-36.978 36.978-36.978v-8c-24.84 0-44.978 20.137-44.978 44.978h8zm36.978-36.978h204.891v-8H466.9v8zm204.891 0c20.422 0 36.978 16.555 36.978 36.978h8c0-24.841-20.138-44.978-44.978-44.978v8zm36.978 36.978v102.445h8V254.201h-8z" fill="#E1E4E5" mask="url(#c)"/><path d="m561.595 294.334.001.003a22.492 22.492 0 0 0 18.711 10.007h132.461c21.527 0 38.978 17.451 38.978 38.978v143.423c0 21.527-17.451 38.978-38.978 38.978H425.922c-21.527 0-38.978-17.451-38.978-38.978v-204.89c0-21.527 17.451-38.978 38.978-38.978h91.489a18.492 18.492 0 0 1 15.438 8.246l28.746 43.211z" fill="#fff" stroke="#E1E4E5" stroke-width="4"/><path d="m767.534 499.96-42.729-42.73" stroke="#FD7600" stroke-width="22.326" stroke-linecap="round" stroke-linejoin="round"/><circle cx="644.049" cy="359.09" r="123.219" fill="#fff" stroke="#FD7600" stroke-width="20.479" stroke-linecap="round" stroke-linejoin="round"/><path d="M765.967 239.753c-13.098 6.498-30.482-1.857-30.482-1.857s3.863-18.885 16.968-25.373c13.099-6.498 30.476 1.848 30.476 1.848s-3.863 18.885-16.962 25.382z" fill="url(#d)"/><path d="M191.616 370.036c20.174 12.091 49.117.914 49.117.914s-3.785-30.776-23.971-42.854c-20.174-12.091-49.105-.927-49.105-.927s3.784 30.776 23.959 42.867z" fill="url(#e)"/><circle r="7.887" transform="matrix(-1 0 0 1 326.228 435.807)" fill="#E1E4E5"/><circle r="11.392" transform="matrix(-1 0 0 1 153.542 433.026)" fill="#E1E4E5"/><circle r="8.671" transform="matrix(-1 0 0 1 798.262 411.588)" fill="#E1E4E5"/><circle r="9.64" transform="matrix(-1 0 0 1 669.851 158.239)" fill="#E1E4E5"/><circle r="8.656" transform="matrix(0 1 1 0 102.656 251.715)" fill="#E1E4E5"/><circle r="11.516" transform="matrix(-1 0 0 1 403.348 83.516)" fill="#E1E4E5"/><ellipse rx="8.858" ry="7.087" transform="matrix(-1 0 0 1 439.359 485.694)" fill="#E1E4E5"/><circle r="18.016" transform="scale(1 -1) rotate(-75 209.545 -416.04)" fill="#E1E4E5"/><path d="M219.079 193.272h.126c.747 10.588 8.621 10.751 8.621 10.751s-8.682.17-8.682 12.403c0-12.233-8.683-12.403-8.683-12.403s7.871-.163 8.618-10.751zm-13.192 277.146h.122c.717 10.556 8.277 10.719 8.277 10.719s-8.336.169-8.336 12.366c0-12.197-8.337-12.366-8.337-12.366s7.557-.163 8.274-10.719z" fill="#E1E4E5"/><defs><linearGradient id="d" x1="715.669" y1="260.021" x2="823.704" y2="174.565" gradientUnits="userSpaceOnUse"><stop stop-color="#fff"/><stop offset="1" stop-color="#EEE"/></linearGradient><linearGradient id="e" x1="269.684" y1="408.957" x2="107.356" y2="258.133" gradientUnits="userSpaceOnUse"><stop stop-color="#fff"/><stop offset="1" stop-color="#EEE"/></linearGradient></defs></svg>

<svg width="900" height="600" viewBox="0 0 900 600" fill="none" xmlns="http://www.w3.org/2000/svg">
<g clip-path="url(#clip0_2_42)">
<mask id="mask0_2_42" style="mask-type:alpha" maskUnits="userSpaceOnUse" x="182" y="103" width="288" height="144">
<path fill-rule="evenodd" clip-rule="evenodd" d="M182.191 185.176V144.198C182.191 121.567 200.538 103.22 223.169 103.22H428.059C450.691 103.22 469.037 121.567 469.037 144.198V246.643" fill="white"/>
</mask>
<g mask="url(#mask0_2_42)">
<path fill-rule="evenodd" clip-rule="evenodd" d="M182.191 185.176V144.198C182.191 121.567 200.538 103.22 223.169 103.22H428.059C450.691 103.22 469.037 121.567 469.037 144.198V246.643" fill="white"/>
<path d="M186.191 185.176V144.198H178.191V185.176H186.191ZM186.191 144.198C186.191 123.776 202.747 107.22 223.169 107.22V99.22C198.329 99.22 178.191 119.358 178.191 144.198H186.191ZM223.169 107.22H428.059V99.22H223.169V107.22V107.22ZM428.059 107.22C448.482 107.22 465.037 123.776 465.037 144.198H473.037C473.037 119.358 452.9 99.22 428.059 99.22V107.22ZM465.037 144.198V246.643H473.037V144.198H465.037V144.198Z" fill="#F8F8F8"/>
<path d="M317.864 184.332L317.865 184.334C319.919 187.413 322.702 189.938 325.966 191.683C329.23 193.429 332.874 194.342 336.576 194.342H469.037C490.564 194.342 508.015 211.793 508.015 233.32V376.743C508.015 398.27 490.564 415.721 469.037 415.721H182.191C160.664 415.721 143.213 398.27 143.213 376.743V171.853C143.213 150.326 160.664 132.875 182.191 132.875H273.679C276.733 132.867 279.742 133.616 282.436 135.055C285.13 136.494 287.426 138.578 289.118 141.121L317.864 184.332V184.332Z" fill="white" stroke="#F8F8F8" stroke-width="4"/>
</g>
<mask id="mask1_2_42" style="mask-type:alpha" maskUnits="userSpaceOnUse" x="304" y="158" width="287" height="144">
<path fill-rule="evenodd" clip-rule="evenodd" d="M304.057 240.177V199.199C304.057 176.568 322.403 158.221 345.035 158.221H549.925C572.556 158.221 590.903 176.568 590.903 199.199V301.644" fill="white"/>
</mask>
<g mask="url(#mask1_2_42)">
<path fill-rule="evenodd" clip-rule="evenodd" d="M304.057 240.177V199.199C304.057 176.568 322.403 158.221 345.035 158.221H549.925C572.556 158.221 590.903 176.568 590.903 199.199V301.644" fill="white"/>
<path d="M308.057 240.177V199.199H300.057V240.177H308.057ZM308.057 199.199C308.057 178.777 324.613 162.221 345.035 162.221V154.221C320.194 154.221 300.057 174.359 300.057 199.199H308.057ZM345.035 162.221H549.925V154.221H345.035V162.221V162.221ZM549.925 162.221C570.347 162.221 586.903 178.777 586.903 199.199H594.903C594.903 174.359 574.766 154.221 549.925 154.221V162.221ZM586.903 199.199V301.644H594.903V199.199H586.903V199.199Z" fill="#F8F8F8"/>
<path d="M439.729 239.333L439.731 239.335C441.785 242.414 444.568 244.939 447.831 246.685C451.095 248.43 454.74 249.344 458.441 249.343H590.903C612.43 249.343 629.881 266.794 629.881 288.321V431.744C629.881 453.271 612.43 470.722 590.903 470.722H304.057C282.53 470.722 265.079 453.271 265.079 431.744V226.854C265.079 205.327 282.53 187.876 304.057 187.876H395.545C398.599 187.868 401.608 188.617 404.302 190.056C406.996 191.495 409.291 193.579 410.983 196.122L439.729 239.333V239.333Z" fill="white" stroke="#F8F8F8" stroke-width="4"/>
</g>
<mask id="mask2_2_42" style="mask-type:alpha" maskUnits="userSpaceOnUse" x="425" y="213" width="288" height="144">
<path fill-rule="evenodd" clip-rule="evenodd" d="M425.922 295.179V254.201C425.922 231.569 444.269 213.223 466.9 213.223H671.791C694.422 213.223 712.769 231.569 712.769 254.201V356.646" fill="white"/>
</mask>
<g mask="url(#mask2_2_42)">
<path fill-rule="evenodd" clip-rule="evenodd" d="M425.922 295.179V254.201C425.922 231.569 444.269 213.223 466.9 213.223H671.791C694.422 213.223 712.769 231.569 712.769 254.201V356.646" fill="white"/>
<path d="M429.922 295.179V254.201H421.922V295.179H429.922ZM429.922 254.201C429.922 233.778 446.478 217.223 466.9 217.223V209.223C442.06 209.223 421.922 229.36 421.922 254.201H429.922ZM466.9 217.223H671.791V209.223H466.9V217.223V217.223ZM671.791 217.223C692.213 217.223 708.769 233.778 708.769 254.201H716.769C716.769 229.36 696.631 209.223 671.791 209.223V217.223ZM708.769 254.201V356.646H716.769V254.201H708.769V254.201Z" fill="#F8F8F8"/>
<path d="M561.595 294.334L561.596 294.337C563.651 297.416 566.433 299.94 569.697 301.686C572.961 303.431 576.606 304.344 580.307 304.344H712.768C734.295 304.344 751.746 321.795 751.746 343.322V486.745C751.746 508.272 734.295 525.723 712.768 525.723H425.922C404.395 525.723 386.944 508.272 386.944 486.745V281.855C386.944 260.328 404.395 242.877 425.922 242.877H517.411C520.465 242.87 523.473 243.619 526.167 245.058C528.861 246.497 531.157 248.581 532.849 251.123L561.595 294.334V294.334Z" fill="white" stroke="#F8F8F8" stroke-width="4"/>
<path d="M644.049 482.309C712.101 482.309 767.268 427.142 767.268 359.09C767.268 291.038 712.101 235.871 644.049 235.871C575.997 235.871 520.83 291.038 520.83 359.09C520.83 427.142 575.997 482.309 644.049 482.309Z" fill="white" stroke="#FD7600" stroke-width="20.479" stroke-linecap="round" stroke-linejoin="round"/>
</g>
</g>
<defs>
<clipPath id="clip0_2_42">
<rect width="900" height="600" fill="white"/>
</clipPath>
</defs>
</svg>
